; generated by Slic3r 1.3.1-dev (Build 54a31ee) on 2020-03-24 at 11:59:44

; external perimeters extrusion width = 0.44mm (2.86mm^3/s)
; perimeters extrusion width = 0.56mm (4.14mm^3/s)
; infill extrusion width = 0.50mm (3.66mm^3/s)
; solid infill extrusion width = 0.56mm (3.10mm^3/s)
; top infill extrusion width = 0.45mm (2.44mm^3/s)

M107
G92 E0
;D3D:START:START
T0
M104 S215 T0

G21
G90
M107
T0
G28
G29
M109 T0 S215 T0
G0 F3000
M107
T0
G92 E0
G0 X0 Y149 Z0.1 F3600
G1 Y49 E6.5 F1200
G0 Z1
G92 E0
; Filament gcode

G21 ; set units to millimeters
G90 ; use absolute coordinates
M82 ; use absolute distances for extrusion
G92 E0
G1 Z0.200 F6000.000
G1 E-2.00000 F1200.00000
G92 E0
G1 Z0.700 F6000.000
G1 X49.796 Y78.701 F6000.000
G1 Z0.200 F6000.000
G1 E2.00000 F1200.00000
G1 F1800.000
G1 X50.482 Y78.335 E2.01579
G1 X51.226 Y78.109 E2.03159
G1 X52.000 Y78.033 E2.04738
G1 X52.774 Y78.109 E2.06318
G1 X53.518 Y78.335 E2.07897
G1 X54.204 Y78.701 E2.09476
G1 X54.805 Y79.195 E2.11056
G1 X55.299 Y79.796 E2.12635
G1 X55.665 Y80.482 E2.14214
G1 X55.891 Y81.226 E2.15794
G1 X55.967 Y82.000 E2.17373
G1 X55.891 Y82.774 E2.18953
G1 X55.665 Y83.518 E2.20532
G1 X55.299 Y84.204 E2.22112
G1 X54.805 Y84.805 E2.23691
G1 X54.204 Y85.299 E2.25270
G1 X53.518 Y85.665 E2.26850
G1 X52.774 Y85.891 E2.28429
G1 X52.000 Y85.967 E2.30009
G1 X51.226 Y85.891 E2.31588
G1 X50.482 Y85.665 E2.33167
G1 X49.796 Y85.299 E2.34747
G1 X49.195 Y84.805 E2.36326
G1 X48.701 Y84.204 E2.37905
G1 X48.335 Y83.518 E2.39485
G1 X48.109 Y82.774 E2.41064
G1 X48.033 Y82.000 E2.42644
G1 X48.109 Y81.226 E2.44223
G1 X48.335 Y80.482 E2.45803
G1 X48.701 Y79.796 E2.47382
G1 X49.195 Y79.195 E2.48961
G1 X49.749 Y78.739 E2.50419
G1 X49.939 Y78.916 F6000.000
G1 F1800.000
G1 X50.581 Y78.573 E2.51895
G1 X51.276 Y78.362 E2.53372
G1 X52.000 Y78.291 E2.54849
G1 X52.724 Y78.362 E2.56325
G1 X53.419 Y78.573 E2.57802
G1 X54.061 Y78.916 E2.59278
G1 X54.623 Y79.377 E2.60755
G1 X55.084 Y79.939 E2.62231
G1 X55.427 Y80.581 E2.63708
G1 X55.638 Y81.276 E2.65184
G1 X55.709 Y82.000 E2.66661
G1 X55.638 Y82.724 E2.68138
G1 X55.427 Y83.419 E2.69614
G1 X55.084 Y84.061 E2.71091
G1 X54.623 Y84.623 E2.72567
G1 X54.061 Y85.084 E2.74044
G1 X53.419 Y85.427 E2.75520
G1 X52.724 Y85.638 E2.76997
G1 X52.000 Y85.709 E2.78473
G1 X51.276 Y85.638 E2.79950
G1 X50.581 Y85.427 E2.81427
G1 X49.939 Y85.084 E2.82903
G1 X49.377 Y84.623 E2.84380
G1 X48.916 Y84.061 E2.85856
G1 X48.573 Y83.419 E2.87333
G1 X48.362 Y82.724 E2.88809
G1 X48.291 Y82.000 E2.90286
G1 X48.362 Y81.276 E2.91762
G1 X48.573 Y80.581 E2.93239
G1 X48.916 Y79.939 E2.94716
G1 X49.377 Y79.377 E2.96192
G1 X49.893 Y78.954 E2.97547
G1 X50.083 Y79.131 F6000.000
G1 F1800.000
G1 X50.679 Y78.812 E2.98921
G1 X51.327 Y78.616 E3.00294
G1 X52.000 Y78.549 E3.01668
G1 X52.673 Y78.616 E3.03042
G1 X53.321 Y78.812 E3.04416
G1 X53.917 Y79.131 E3.05789
G1 X54.440 Y79.560 E3.07163
G1 X54.869 Y80.083 E3.08537
G1 X55.188 Y80.679 E3.09910
G1 X55.384 Y81.327 E3.11284
G1 X55.451 Y82.000 E3.12658
G1 X55.384 Y82.673 E3.14032
G1 X55.188 Y83.321 E3.15405
G1 X54.869 Y83.917 E3.16779
G1 X54.440 Y84.440 E3.18153
G1 X53.917 Y84.869 E3.19526
G1 X53.321 Y85.188 E3.20900
G1 X52.673 Y85.384 E3.22274
G1 X52.000 Y85.451 E3.23648
G1 X51.327 Y85.384 E3.25021
G1 X50.679 Y85.188 E3.26395
G1 X50.083 Y84.869 E3.27769
G1 X49.560 Y84.440 E3.29142
G1 X49.131 Y83.917 E3.30516
G1 X48.812 Y83.321 E3.31890
G1 X48.616 Y82.673 E3.33264
G1 X48.549 Y82.000 E3.34637
G1 X48.616 Y81.327 E3.36011
G1 X48.812 Y80.679 E3.37385
G1 X49.131 Y80.083 E3.38759
G1 X49.560 Y79.560 E3.40132
G1 X50.036 Y79.169 E3.41384
G1 X50.057 Y78.732 F6000.000
G1 E1.41384 F1200.00000
G92 E0
G1 Z0.700 F6000.000
G1 X78.033 Y82.000 F6000.000
G1 Z0.200 F6000.000
G1 E2.00000 F1200.00000
G1 F1800.000
G1 X78.109 Y81.226 E2.01579
G1 X78.335 Y80.482 E2.03159
G1 X78.701 Y79.796 E2.04738
G1 X79.195 Y79.195 E2.06318
G1 X79.796 Y78.701 E2.07897
G1 X80.482 Y78.335 E2.09476
G1 X81.226 Y78.109 E2.11056
G1 X82.000 Y78.033 E2.12635
G1 X82.774 Y78.109 E2.14215
G1 X83.518 Y78.335 E2.15794
G1 X84.204 Y78.701 E2.17373
G1 X84.805 Y79.195 E2.18953
G1 X85.299 Y79.796 E2.20532
G1 X85.665 Y80.482 E2.22112
G1 X85.891 Y81.226 E2.23691
G1 X85.967 Y82.000 E2.25270
G1 X85.891 Y82.774 E2.26850
G1 X85.665 Y83.518 E2.28429
G1 X85.299 Y84.204 E2.30009
G1 X84.805 Y84.805 E2.31588
G1 X84.204 Y85.299 E2.33167
G1 X83.518 Y85.665 E2.34747
G1 X82.774 Y85.891 E2.36326
G1 X82.000 Y85.967 E2.37906
G1 X81.226 Y85.891 E2.39485
G1 X80.482 Y85.665 E2.41065
G1 X79.796 Y85.299 E2.42644
G1 X79.195 Y84.805 E2.44223
G1 X78.701 Y84.204 E2.45803
G1 X78.335 Y83.518 E2.47382
G1 X78.109 Y82.774 E2.48961
G1 X78.039 Y82.060 E2.50419
G1 X78.291 Y82.000 F6000.000
G1 F1800.000
G1 X78.362 Y81.276 E2.51896
G1 X78.573 Y80.581 E2.53372
G1 X78.916 Y79.939 E2.54849
G1 X79.377 Y79.377 E2.56325
G1 X79.939 Y78.916 E2.57802
G1 X80.581 Y78.573 E2.59278
G1 X81.276 Y78.362 E2.60755
G1 X82.000 Y78.291 E2.62231
G1 X82.724 Y78.362 E2.63708
G1 X83.419 Y78.573 E2.65185
G1 X84.061 Y78.916 E2.66661
G1 X84.623 Y79.377 E2.68138
G1 X85.084 Y79.939 E2.69614
G1 X85.427 Y80.581 E2.71091
G1 X85.638 Y81.276 E2.72567
G1 X85.709 Y82.000 E2.74044
G1 X85.638 Y82.724 E2.75520
G1 X85.427 Y83.419 E2.76997
G1 X85.084 Y84.061 E2.78474
G1 X84.623 Y84.623 E2.79950
G1 X84.061 Y85.084 E2.81427
G1 X83.419 Y85.427 E2.82903
G1 X82.724 Y85.638 E2.84380
G1 X82.000 Y85.709 E2.85856
G1 X81.276 Y85.638 E2.87333
G1 X80.581 Y85.427 E2.88810
G1 X79.939 Y85.084 E2.90286
G1 X79.377 Y84.623 E2.91763
G1 X78.916 Y84.061 E2.93239
G1 X78.573 Y83.419 E2.94716
G1 X78.362 Y82.724 E2.96192
G1 X78.297 Y82.060 E2.97547
G1 X78.549 Y82.000 F6000.000
G1 F1800.000
G1 X78.616 Y81.327 E2.98921
G1 X78.812 Y80.679 E3.00295
G1 X79.131 Y80.083 E3.01668
G1 X79.560 Y79.560 E3.03042
G1 X80.083 Y79.131 E3.04416
G1 X80.679 Y78.812 E3.05789
G1 X81.327 Y78.616 E3.07163
G1 X82.000 Y78.549 E3.08537
G1 X82.673 Y78.616 E3.09911
G1 X83.321 Y78.812 E3.11284
G1 X83.917 Y79.131 E3.12658
G1 X84.440 Y79.560 E3.14032
G1 X84.869 Y80.083 E3.15406
G1 X85.188 Y80.679 E3.16779
G1 X85.384 Y81.327 E3.18153
G1 X85.451 Y82.000 E3.19527
G1 X85.384 Y82.673 E3.20900
G1 X85.188 Y83.321 E3.22274
G1 X84.869 Y83.917 E3.23648
G1 X84.440 Y84.440 E3.25022
G1 X83.917 Y84.869 E3.26395
G1 X83.321 Y85.188 E3.27769
G1 X82.673 Y85.384 E3.29143
G1 X82.000 Y85.451 E3.30517
G1 X81.327 Y85.384 E3.31890
G1 X80.679 Y85.188 E3.33264
G1 X80.083 Y84.869 E3.34638
G1 X79.560 Y84.440 E3.36011
G1 X79.131 Y83.917 E3.37385
G1 X78.812 Y83.321 E3.38759
G1 X78.616 Y82.673 E3.40133
G1 X78.555 Y82.060 E3.41384
G1 X78.203 Y81.800 F6000.000
G1 E1.41384 F1200.00000
G92 E0
G1 Z0.700 F6000.000
G1 X95.365 Y95.365 F6000.000
G1 Z0.200 F6000.000
G1 E2.00000 F1200.00000
G1 F1800.000
G1 X38.635 Y95.365 E3.15203
G1 X38.635 Y68.635 E3.69484
G1 X95.365 Y68.635 E4.84687
G1 X95.365 Y95.305 E5.38846
G1 X95.622 Y95.622 F6000.000
G1 F1800.000
G1 X38.378 Y95.622 E6.55093
G1 X38.378 Y68.378 E7.10418
G1 X95.622 Y68.378 E8.26666
G1 X95.622 Y95.562 E8.81869
G1 X95.879 Y95.879 F6000.000
G1 F1800.000
G1 X38.121 Y95.879 E9.99160
G1 X38.121 Y68.121 E10.55529
G1 X95.879 Y68.121 E11.72821
G1 X95.879 Y95.819 E12.29068
G1 X95.483 Y95.819 F6000.000
G1 X94.998 Y95.217 F6000.000
G1 F1800.000
G1 X95.217 Y94.998 E12.29697
G1 X95.217 Y94.634 E12.30440
G1 X94.634 Y95.217 E12.32120
G1 X94.269 Y95.217 E12.32863
G1 X95.217 Y94.269 E12.35593
G1 X95.217 Y93.904 E12.36336
G1 X93.904 Y95.217 E12.40118
G1 X93.540 Y95.217 E12.40861
G1 X95.217 Y93.540 E12.45693
G1 X95.217 Y93.175 E12.46436
G1 X93.175 Y95.217 E12.52319
G1 X92.810 Y95.217 E12.53063
G1 X95.217 Y92.810 E12.59997
G1 X95.217 Y92.445 E12.60740
G1 X92.445 Y95.217 E12.68725
G1 X92.081 Y95.217 E12.69468
G1 X95.217 Y92.081 E12.78503
G1 X95.217 Y91.716 E12.79246
G1 X91.716 Y95.217 E12.89333
G1 X91.351 Y95.217 E12.90076
G1 X95.217 Y91.351 E13.01214
G1 X95.217 Y90.986 E13.01957
G1 X90.986 Y95.217 E13.14145
G1 X90.622 Y95.217 E13.14888
G1 X95.217 Y90.622 E13.28127
G1 X95.217 Y90.257 E13.28870
G1 X90.257 Y95.217 E13.43160
G1 X89.892 Y95.217 E13.43903
G1 X95.217 Y89.892 E13.59244
G1 X95.217 Y89.527 E13.59987
G1 X89.527 Y95.217 E13.76379
G1 X89.163 Y95.217 E13.77122
G1 X95.217 Y89.163 E13.94565
G1 X95.217 Y88.798 E13.95308
G1 X88.798 Y95.217 E14.13801
G1 X88.433 Y95.217 E14.14545
G1 X95.217 Y88.433 E14.34089
G1 X95.217 Y88.069 E14.34832
G1 X88.069 Y95.217 E14.55427
G1 X87.704 Y95.217 E14.56170
G1 X95.217 Y87.704 E14.77816
G1 X95.217 Y87.339 E14.78559
G1 X87.339 Y95.217 E15.01256
G1 X86.974 Y95.217 E15.01999
G1 X95.217 Y86.974 E15.25747
G1 X95.217 Y86.610 E15.26490
G1 X86.610 Y95.217 E15.51289
G1 X86.245 Y95.217 E15.52032
G1 X95.217 Y86.245 E15.77881
G1 X95.217 Y85.880 E15.78624
G1 X85.880 Y95.217 E16.05525
G1 X85.515 Y95.217 E16.06268
G1 X95.217 Y85.515 E16.34219
G1 X95.217 Y85.151 E16.34962
G1 X85.151 Y95.217 E16.63964
G1 X84.786 Y95.217 E16.64707
G1 X95.217 Y84.786 E16.94760
G1 X95.217 Y84.421 E16.95503
G1 X84.421 Y95.217 E17.26607
G1 X84.056 Y95.217 E17.27350
G1 X95.217 Y84.056 E17.59505
G1 X95.217 Y83.692 E17.60248
G1 X83.692 Y95.217 E17.93453
G1 X83.327 Y95.217 E17.94196
G1 X95.217 Y83.327 E18.28453
G1 X95.217 Y82.962 E18.29196
G1 X82.962 Y95.217 E18.64503
G1 X82.597 Y95.217 E18.65246
G1 X95.217 Y82.597 E19.01604
G1 X95.217 Y82.233 E19.02347
G1 X82.233 Y95.217 E19.39756
G1 X81.868 Y95.217 E19.40499
G1 X95.217 Y81.868 E19.78959
G1 X95.217 Y81.503 E19.79702
G1 X81.503 Y95.217 E20.19212
G1 X81.139 Y95.217 E20.19956
G1 X95.217 Y81.139 E20.60517
G1 X95.217 Y80.774 E20.61260
G1 X80.774 Y95.217 E21.02872
G1 X80.409 Y95.217 E21.03616
G1 X95.217 Y80.409 E21.46279
G1 X95.217 Y80.044 E21.47022
G1 X80.044 Y95.217 E21.90736
G1 X79.680 Y95.217 E21.91479
G1 X95.217 Y79.680 E22.36244
G1 X95.217 Y79.315 E22.36987
G1 X79.315 Y95.217 E22.82803
G1 X78.950 Y95.217 E22.83546
G1 X95.217 Y78.950 E23.30412
G1 X95.217 Y78.585 E23.31155
G1 X78.585 Y95.217 E23.79073
G1 X78.221 Y95.217 E23.79816
G1 X95.217 Y78.221 E24.28784
G1 X95.217 Y77.856 E24.29527
G1 X77.856 Y95.217 E24.79547
G1 X77.491 Y95.217 E24.80290
G1 X95.217 Y77.491 E25.31360
G1 X95.217 Y77.126 E25.32103
G1 X77.126 Y95.217 E25.84224
G1 X76.762 Y95.217 E25.84967
G1 X95.217 Y76.762 E26.38139
G1 X95.217 Y76.397 E26.38882
G1 X76.397 Y95.217 E26.93104
G1 X76.032 Y95.217 E26.93847
G1 X95.217 Y76.032 E27.49121
G1 X95.217 Y75.667 E27.49864
G1 X75.667 Y95.217 E28.06188
G1 X75.303 Y95.217 E28.06931
G1 X95.217 Y75.303 E28.64307
G1 X95.217 Y74.938 E28.65050
G1 X74.938 Y95.217 E29.23476
G1 X74.573 Y95.217 E29.24219
G1 X84.304 Y85.486 E29.52254
G1 X83.726 Y85.795 E29.53589
G1 X83.589 Y85.837 E29.53882
G1 X74.209 Y95.217 E29.80907
G1 X73.844 Y95.217 E29.81651
G1 X83.065 Y85.995 E30.08218
G1 X82.933 Y86.035 E30.08499
G1 X82.631 Y86.065 E30.09119
G1 X73.479 Y95.217 E30.35485
G1 X73.114 Y95.217 E30.36229
G1 X82.226 Y86.105 E30.62481
G1 X82.109 Y86.117 E30.62720
G1 X81.873 Y86.093 E30.63203
G1 X72.750 Y95.217 E30.89489
G1 X72.385 Y95.217 E30.90232
G1 X81.541 Y86.061 E31.16612
G1 X81.221 Y86.016 E31.17271
G1 X72.020 Y95.217 E31.43779
G1 X71.655 Y95.217 E31.44523
G1 X80.941 Y85.931 E31.71276
G1 X80.661 Y85.846 E31.71872
G1 X71.291 Y95.217 E31.98869
G1 X70.926 Y95.217 E31.99612
G1 X80.398 Y85.745 E32.26903
G1 X80.160 Y85.618 E32.27452
G1 X70.561 Y95.217 E32.55108
G1 X70.196 Y95.217 E32.55851
G1 X79.923 Y85.491 E32.83874
G1 X79.697 Y85.352 E32.84414
G1 X69.832 Y95.217 E33.12837
G1 X69.467 Y95.217 E33.13580
G1 X79.497 Y85.187 E33.42477
G1 X79.296 Y85.023 E33.43005
G1 X69.102 Y95.217 E33.72375
G1 X68.738 Y95.217 E33.73118
G1 X79.100 Y84.854 E34.02976
G1 X78.936 Y84.654 E34.03504
G1 X68.373 Y95.217 E34.33938
G1 X68.008 Y95.217 E34.34681
G1 X78.772 Y84.453 E34.65692
G1 X78.607 Y84.253 E34.66220
G1 X67.643 Y95.217 E34.97809
G1 X67.279 Y95.217 E34.98552
G1 X78.477 Y84.018 E35.30818
G1 X78.350 Y83.780 E35.31367
G1 X66.914 Y95.217 E35.64317
G1 X66.549 Y95.217 E35.65060
G1 X78.223 Y83.542 E35.98696
G1 X78.132 Y83.269 E35.99284
G1 X66.184 Y95.217 E36.33708
G1 X65.820 Y95.217 E36.34451
G1 X78.048 Y82.989 E36.69681
G1 X77.964 Y82.708 E36.70279
G1 X65.455 Y95.217 E37.06319
G1 X65.090 Y95.217 E37.07062
G1 X77.931 Y82.376 E37.44059
G1 X77.898 Y82.044 E37.44738
G1 X64.725 Y95.217 E37.82692
G1 X64.361 Y95.217 E37.83435
G1 X77.905 Y81.673 E38.22458
G1 X77.945 Y81.268 E38.23286
G1 X63.996 Y95.217 E38.63475
G1 X63.631 Y95.217 E38.64218
G1 X78.044 Y80.804 E39.05744
G1 X78.203 Y80.280 E39.06859
G1 X63.266 Y95.217 E39.49893
G1 X62.902 Y95.217 E39.50636
G1 X78.688 Y79.430 E39.96119
G1 E37.96119 F1200.00000
G92 E0
G1 Z0.700 F6000.000
G1 X85.486 Y84.304 F6000.000
G1 Z0.200 F6000.000
G1 E2.00000 F1200.00000
G1 F1800.000
G1 X95.217 Y74.573 E2.28035
G1 X95.217 Y74.209 E2.28778
G1 X85.837 Y83.589 E2.55804
G1 X85.995 Y83.065 E2.56918
G1 X95.217 Y73.844 E2.83486
G1 X95.217 Y73.479 E2.84229
G1 X86.065 Y82.631 E3.10596
G1 X86.105 Y82.226 E3.11424
G1 X95.217 Y73.114 E3.37676
G1 X95.217 Y72.750 E3.38419
G1 X86.093 Y81.873 E3.64705
G1 X86.061 Y81.541 E3.65385
G1 X95.217 Y72.385 E3.91765
G1 X95.217 Y72.020 E3.92508
G1 X86.016 Y81.221 E4.19017
G1 X85.931 Y80.941 E4.19613
G1 X95.217 Y71.655 E4.46366
G1 X95.217 Y71.291 E4.47109
G1 X85.846 Y80.661 E4.74107
G1 X85.795 Y80.492 E4.74467
G1 X85.745 Y80.398 E4.74684
G1 X95.217 Y70.926 E5.01974
G1 X95.217 Y70.561 E5.02717
G1 X85.618 Y80.160 E5.30374
G1 X85.491 Y79.923 E5.30923
G1 X95.217 Y70.196 E5.58945
G1 X95.217 Y69.832 E5.59688
G1 X85.352 Y79.697 E5.88111
G1 X85.187 Y79.497 E5.88639
G1 X95.217 Y69.467 E6.17536
G1 X95.217 Y69.102 E6.18279
G1 X85.023 Y79.296 E6.47649
G1 X84.854 Y79.100 E6.48176
G1 X95.171 Y68.783 E6.77902
G1 X94.806 Y68.783 E6.78645
G1 X84.654 Y78.936 E7.07897
G1 X84.453 Y78.772 E7.08424
G1 X94.442 Y68.783 E7.37203
G1 X94.077 Y68.783 E7.37946
G1 X84.253 Y78.607 E7.66250
G1 X84.018 Y78.478 E7.66797
G1 X93.712 Y68.783 E7.94728
G1 X93.347 Y68.783 E7.95471
G1 X83.780 Y78.350 E8.23036
G1 X83.542 Y78.223 E8.23585
G1 X92.983 Y68.783 E8.50784
G1 X92.618 Y68.783 E8.51527
G1 X83.269 Y78.132 E8.78463
G1 X82.989 Y78.048 E8.79059
G1 X92.253 Y68.783 E9.05751
G1 X91.888 Y68.783 E9.06494
G1 X82.708 Y77.964 E9.32945
G1 X82.376 Y77.931 E9.33624
G1 X91.524 Y68.783 E9.59981
G1 X91.159 Y68.783 E9.60724
G1 X82.044 Y77.898 E9.86986
G1 X81.891 Y77.883 E9.87299
G1 X81.673 Y77.905 E9.87746
G1 X90.794 Y68.783 E10.14027
G1 X90.429 Y68.783 E10.14770
G1 X81.268 Y77.945 E10.41166
G1 X81.067 Y77.965 E10.41578
G1 X80.804 Y78.044 E10.42138
G1 X90.065 Y68.783 E10.68821
G1 X89.700 Y68.783 E10.69564
G1 X80.280 Y78.203 E10.96704
G1 X79.543 Y78.596 E10.98405
G1 X79.430 Y78.689 E10.98704
G1 X89.335 Y68.783 E11.27243
G1 X88.971 Y68.783 E11.27986
G1 X62.537 Y95.217 E12.04145
G1 X62.172 Y95.217 E12.04888
G1 X88.606 Y68.783 E12.81047
G1 X88.241 Y68.783 E12.81790
G1 X61.808 Y95.217 E13.57949
G1 X61.443 Y95.217 E13.58692
G1 X87.876 Y68.783 E14.34851
G1 X87.512 Y68.783 E14.35594
G1 X61.078 Y95.217 E15.11753
G1 X60.713 Y95.217 E15.12496
G1 X87.147 Y68.783 E15.88655
G1 X86.782 Y68.783 E15.89398
G1 X60.349 Y95.217 E16.65557
G1 X59.984 Y95.217 E16.66300
G1 X86.417 Y68.783 E17.42459
G1 X86.053 Y68.783 E17.43202
G1 X59.619 Y95.217 E18.19361
G1 X59.254 Y95.217 E18.20104
G1 X85.688 Y68.783 E18.96263
G1 X85.323 Y68.783 E18.97006
G1 X58.890 Y95.217 E19.73165
G1 X58.525 Y95.217 E19.73908
G1 X84.958 Y68.783 E20.50067
G1 X84.594 Y68.783 E20.50810
G1 X58.160 Y95.217 E21.26969
G1 X57.795 Y95.217 E21.27712
G1 X84.229 Y68.783 E22.03871
G1 X83.864 Y68.783 E22.04614
G1 X57.431 Y95.217 E22.80773
G1 X57.066 Y95.217 E22.81516
G1 X83.500 Y68.783 E23.57675
G1 X83.135 Y68.783 E23.58419
G1 X56.701 Y95.217 E24.34578
G1 X56.337 Y95.217 E24.35321
G1 X82.770 Y68.783 E25.11480
G1 X82.405 Y68.783 E25.12223
G1 X55.972 Y95.217 E25.88382
G1 X55.607 Y95.217 E25.89125
G1 X82.041 Y68.783 E26.65284
G1 X81.676 Y68.783 E26.66027
G1 X55.242 Y95.217 E27.42186
G1 X54.878 Y95.217 E27.42929
G1 X81.311 Y68.783 E28.19088
G1 X80.946 Y68.783 E28.19831
G1 X54.513 Y95.217 E28.95990
G1 X54.148 Y95.217 E28.96733
G1 X80.582 Y68.783 E29.72892
G1 X80.217 Y68.783 E29.73635
G1 X53.783 Y95.217 E30.49794
G1 X53.419 Y95.217 E30.50537
G1 X79.852 Y68.783 E31.26696
G1 X79.487 Y68.783 E31.27439
